X:16
T:Seigneur, rassemble nous - D87
C:D. Ombrie
M:3/4
L:1/8
K:G
E2|B3 B AG|F4 GA|B2 E2 GF|E4||[M:2/4][L:1/8]G|GG FG|
E2 EG|GG AA|B3 B|cc BA|G2 GA|FG AA|B4||
